icons/linear-new-people-s-custom-professional.svg

<svg xmlns="http://www.w3.org/2000/svg" width="32px" height="32px" viewBox="0 0 32 32" version="1.1">
    <title>linear-new-people-s-custom-professional</title>
    <g id="linear-new-people-s-custom-professional" stroke-width="1" fill-rule="evenodd">
        <path d="M16,1 C20.1421356,1 23.5,4.35786438 23.5,8.5 C23.5,12.6421356 20.1421356,16 16,16 C11.8578644,16 8.5,12.6421356 8.5,8.5 C8.5,4.35786438 11.8578644,1 16,1 Z M16,3 C12.9624339,3 10.5,5.46243388 10.5,8.5 C10.5,11.5375661 12.9624339,14 16,14 C19.0375661,14 21.5,11.5375661 21.5,8.5 C21.5,5.46243388 19.0375661,3 16,3 Z M19.4322613,17.2125407 C19.6929974,16.831454 20.1807533,16.6784378 20.6124476,16.8422987 C25.6201626,18.7431092 29,23.554091 29,29 C29,29.5522847 28.5522847,30 28,30 L4,30 C3.44771525,30 3,29.5522847 3,29 C3,23.5536732 6.3803552,18.7424003 11.3886322,16.8418889 C11.8203578,16.6780602 12.3081186,16.8311388 12.5688125,17.212276 L16,22.2292138 L19.4322613,17.2125407 Z M20.621,19.0152138 L16.8253147,24.5646731 C16.4281525,25.1451573 15.5716902,25.1450985 15.1746078,24.5645597 L11.379,19.0152138 L11.2694739,19.0656739 C7.85161324,20.6937385 5.48629845,23.986798 5.0667633,27.7850956 L5.045,27.9992138 L26.954,27.9992138 L26.9332468,27.785187 C26.5137748,23.987169 24.1488103,20.6942883 20.7313444,19.0660644 L20.621,19.0152138 Z" id="&#24418;&#29366;" fill-rule="nonzero" />
    </g>
</svg>

<svg xmlns="http://www.w3.org/2000/svg" viewBox="0 0 32 32"><path fill="currentColor" d="M16 1a7.5 7.5 0 1 1 0 15 7.5 7.5 0 0 1 0-15m0 2a5.5 5.5 0 1 0 0 11 5.5 5.5 0 0 0 0-11m3.432 14.213a1 1 0 0 1 1.18-.37A13.003 13.003 0 0 1 29 29a1 1 0 0 1-1 1H4a1 1 0 0 1-1-1c0-5.446 3.38-10.258 8.389-12.158a1 1 0 0 1 1.18.37L16 22.23zm1.189 1.802-3.796 5.55a1 1 0 0 1-1.65 0l-3.796-5.55-.11.05a11.006 11.006 0 0 0-6.202 8.72L5.045 28h21.909l-.02-.214a11.006 11.006 0 0 0-6.203-8.719z"/></svg>
